X:337
T: DES MORGENS ZWISCHENDREIN UND VIEREN
N: F0580A
O: Europa, Mitteleuropa, Deutschland
R: Soldaten - Lied
M: 4/4
L: 1/8
K: Eb
EG | BBBeG2E2 | c2B2z2
EG | BBBBcBAG | G2F2z2
EG | B3GAGAB | G2z4
ec | B3GBAGF | E2z
EBBBB | BGAFEBBB | BGAF
eedc | B3GBAGA | G2z4

@@@ Tune index: 5768
